!!!OTL: Hoosen Johnny
!!!ARE: United States of America
!!!AMD: Pentatonic
**kern
*clefG2
*k[b-]
*M2/4
*MM144
16r
{16c/
=1
16f/LL
16f/J
8f/J
8f/L
8d/J
=2
8.f/L
16f/Jk
16d/LK
8.c/J}
=3
{16g/LK
8.g/J
16g/LK
8.f/J
=4
[16g/LK
8.g/J]
16a/LK
8cc/}
{16c/Jk
=5
16f/LL
16f/J
8f/J
8f/L
8d/J
=6
8.f/L
16f/Jk
16d/LK
8.c/J}
=7
{4a/
8.g/L
16g/Jk
=8
4.f/}
8r
=9
!! Chorus
{4cc\
8.dd\L
16dd\Jk
=10
2cc\
=11
4cc\
8.dd\L
16dd\Jk
=12
4.cc\}
16r
{16c/
=13
16f/LL
16f/J
8f/J
8f/L
8d/J
=14
8.f/L
16f/Jk
16d/LK
8.c/J}
=15
{4a/
8.g/L
16g/Jk
=16
4.f/}
==
*-
